X:684
T: WIR RUFEN AN DEN THEUREN MANN
N: E2093
O: Europa, Mitteleuropa, Deutschland
R: geistlich, Heiligen - Lied
M: 3/4
L: 1/8
K: G
G2 | G4A2 | _B4B2 | c4c2 | d4
_B2 | c4c2 | d4_B2 | d4_e2 | =f4
d2 | _e4c2 | _B4d2 | c4_B2 | A2G2
dd | c2c2_B2 | A2G2_B2 | c2A4 | G4

@@@ Tune index: 5368
